assets/images/adminIcon.svg

<svg width="25" height="21" viewBox="0 0 25 21" fill="none" xmlns="http://www.w3.org/2000/svg">
<path d="M15.9297 14.25C15.9297 14.6644 15.5941 15 15.1797 15H10.6797C10.2653 15 9.92969 14.6644 9.92969 14.25V12H0.929688V18.75C0.929688 19.95 1.97969 21 3.17969 21H22.6797C23.8797 21 24.9297 19.95 24.9297 18.75V12H15.9297V14.25ZM22.6797 4.5H18.9297V2.25C18.9297 1.05 17.8797 0 16.6797 0H9.17969C7.97969 0 6.92969 1.05 6.92969 2.25V4.5H3.17969C1.97969 4.5 0.929688 5.55 0.929688 6.75V10.5H24.9297V6.75C24.9297 5.55 23.8797 4.5 22.6797 4.5ZM15.9297 4.5H9.92969V3H15.9297V4.5Z" fill="#9D2235"/>
</svg>

<svg xmlns="http://www.w3.org/2000/svg" width="25" height="21" fill="none"><path fill="#9D2235" d="M15.93 14.25a.75.75 0 0 1-.75.75h-4.5a.75.75 0 0 1-.75-.75V12h-9v6.75c0 1.2 1.05 2.25 2.25 2.25h19.5c1.2 0 2.25-1.05 2.25-2.25V12h-9zm6.75-9.75h-3.75V2.25c0-1.2-1.05-2.25-2.25-2.25h-7.5c-1.2 0-2.25 1.05-2.25 2.25V4.5H3.18C1.98 4.5.93 5.55.93 6.75v3.75h24V6.75c0-1.2-1.05-2.25-2.25-2.25m-6.75 0h-6V3h6z"/></svg>
